src/material_light_cursors/all-scroll.svg

<svg xmlns="http://www.w3.org/2000/svg" id="svg5327" width="32" height="32" version="1.1">
 <defs id="defs5329">
  <filter id="filter855" style="color-interpolation-filters:sRGB" width="1.096" height="1.096" x="-.05" y="-.05">
   <feGaussianBlur id="feGaussianBlur857" stdDeviation=".48"/>
  </filter>
 </defs>
 <path id="circle1012" style="opacity:0.3;fill:#000000;fill-opacity:1;stroke:none;stroke-width:0;stroke-linecap:round;stroke-linejoin:round;stroke-miterlimit:4;stroke-dasharray:none;stroke-dashoffset:0;stroke-opacity:1;paint-order:normal;filter:url(#filter855)" d="m 16.179688,4.5081 c -0.368059,-0.048 -0.750297,0.12 -0.951172,0.4551 l -3.097657,5.1699 c -0.367181,0.6128 0.07999,1.3724 0.804688,1.3672 h 6.113281 c 0.725164,-0.01 1.184418,-0.8161 0.826172,-1.4239 L 16.857422,4.9514 C 16.779392,4.8193 16.669291,4.7096 16.535156,4.6311 16.422853,4.5651 16.302374,4.5241 16.179688,4.5081 Z m -6.125,7.9922 c -0.1611724,0 -0.326566,0.035 -0.4785161,0.125 l -5.125,3.0156 c -0.1321,0.078 -0.2418125,0.19 -0.3203125,0.3242 -0.2641,0.4492 -0.1147688,1.0389 0.3320312,1.3067 l 5.1699219,3.0976 C 10.245613,20.7366 11.0052,20.2894 11,19.5647 v -6.1133 c -0.0075,-0.5439 -0.461797,-0.9391 -0.945312,-0.9511 z m 11.839843,0 C 21.422669,12.5003 20.9961,12.8925 21,13.4358 v 6.1133 c 0.01,0.7252 0.816028,1.1845 1.423828,0.8262 l 5.125,-3.0157 c 0.1321,-0.078 0.241813,-0.19 0.320313,-0.3242 0.2641,-0.4492 0.114768,-1.0388 -0.332032,-1.3066 l -5.169921,-3.0977 c -0.1532,-0.092 -0.315369,-0.1324 -0.472657,-0.1308 z M 16,13.5003 a 3,3 0 0 0 -3,3 3,3 0 0 0 3,3 3,3 0 0 0 3,-3 3,3 0 0 0 -3,-3 z m -3.050781,8 c -0.725164,0.01 -1.182465,0.816 -0.824219,1.4238 l 3.015625,5.125 c 0.07803,0.1321 0.190084,0.2418 0.324219,0.3203 0.449215,0.2641 1.038806,0.1148 1.30664,-0.332 l 3.097657,-5.1699 c 0.367181,-0.6128 -0.07999,-1.3724 -0.804688,-1.3672 z"/>
 <circle id="path871" style="opacity:1;fill:#ff9800;fill-opacity:1;stroke:none;stroke-width:0;stroke-linecap:round;stroke-linejoin:round;stroke-miterlimit:4;stroke-dasharray:none;stroke-dashoffset:0;stroke-opacity:1;paint-order:normal" cx="16" cy="16" r="3"/>
 <path id="path823" style="fill:none;stroke:#000000;stroke-width:1;stroke-miterlimit:4;stroke-dasharray:none;stroke-opacity:1;opacity:0.35" d="M 16.179688,4.0078125 C 15.811629,3.9596391 15.429391,4.1277906 15.228516,4.4628906 L 12.130859,9.6328125 C 11.763678,10.245613 12.210852,11.0052 12.935547,11 h 6.113281 C 19.773992,10.99 20.233246,10.183972 19.875,9.5761719 l -3.017578,-5.125 C 16.779392,4.3190719 16.669291,4.2093594 16.535156,4.1308594 16.422853,4.0648344 16.302374,4.0238703 16.179688,4.0078125 Z M 10.054688,12 C 9.8935156,11.996 9.728122,12.03543 9.5761719,12.125 l -5.125,3.015625 c -0.1321,0.078 -0.2418125,0.190019 -0.3203125,0.324219 -0.2641,0.4492 -0.1147688,1.03884 0.3320312,1.30664 l 5.1699219,3.097657 C 10.245613,20.236341 11.0052,19.788853 11,19.064453 V 12.951172 C 10.9925,12.407272 10.538203,12.011986 10.054688,12 Z m 11.839843,0 C 21.422669,12.004819 20.9961,12.392247 21,12.935547 v 6.113281 c 0.01,0.7252 0.816028,1.184472 1.423828,0.826172 l 5.125,-3.015625 c 0.1321,-0.078 0.241813,-0.190019 0.320313,-0.324219 0.2641,-0.4492 0.114768,-1.03884 -0.332032,-1.30664 L 22.367188,12.130859 C 22.213988,12.039059 22.051819,11.998394 21.894531,12 Z m -8.945312,9 c -0.725164,0.01 -1.182465,0.816028 -0.824219,1.423828 l 3.015625,5.125 c 0.07803,0.1321 0.190084,0.241813 0.324219,0.320313 0.449215,0.2641 1.038806,0.114768 1.30664,-0.332032 l 3.097657,-5.169921 C 20.236322,21.754387 19.789148,20.9948 19.064453,21 Z"/>
 <path id="path884" style="fill:#e4e4e4;stroke-width:0.23388676" d="m 15.464844,27.8697 c 0.449215,0.2641 1.039406,0.1137 1.30724,-0.3331 l 3.096481,-5.1692 c 0.367181,-0.6128 -0.07973,-1.3722 -0.804425,-1.367 L 12.95017,21 c -0.725164,0.01 -1.184373,0.8158 -0.826127,1.4236 l 3.017464,5.1253 c 0.07803,0.1321 0.189202,0.2425 0.323337,0.321 z"/>
 <path id="path898" style="fill:#e4e4e4;stroke-width:0.23388676" d="m 27.8697,16.535 c 0.2641,-0.4492 0.1137,-1.0394 -0.3331,-1.3072 l -5.1692,-3.0965 c -0.6128,-0.3672 -1.3722,0.08 -1.367,0.8044 L 21,19.0497 c 0.01,0.7252 0.8158,1.1844 1.4236,0.8261 l 5.1253,-3.0174 c 0.1321,-0.078 0.2425,-0.1892 0.321,-0.3234 z"/>
 <path id="path8" style="fill:#e4e4e4;stroke-width:0.23388676" d="M 16.534888,4.1303 C 16.085673,3.8662 15.495482,4.0166 15.227648,4.4634 l -3.096481,5.1692 c -0.367181,0.6128 0.07973,1.3722 0.804425,1.367 l 6.11397,4e-4 c 0.725164,-0.01 1.184373,-0.8158 0.826127,-1.4236 L 16.858225,4.4511 C 16.780195,4.319 16.669023,4.2086 16.534888,4.1301 Z"/>
 <path id="path904" style="fill:#e4e4e4;stroke-width:0.23388676" d="m 4.1303087,15.465 c -0.2641,0.4492 -0.1137,1.0394 0.3331,1.3072 l 5.1692,3.0965 c 0.6128003,0.3672 1.3722003,-0.08 1.3670003,-0.8044 l 4e-4,-6.114 c -0.01,-0.7252 -0.8158,-1.1844 -1.4236003,-0.8261 l -5.1253,3.0174 c -0.1321,0.078 -0.2425,0.1892 -0.321,0.3234 z"/>
</svg>

<svg xmlns="http://www.w3.org/2000/svg" id="svg5327" width="32" height="32" version="1.1">
 <defs id="defs5329">
  <filter id="filter855" style="color-interpolation-filters:sRGB" width="1.096" height="1.096" x="-.05" y="-.05">
   <feGaussianBlur id="feGaussianBlur857" stdDeviation=".48"/>
  </filter>
 </defs>
 <path id="circle1012" style="opacity:0.3;fill:#000000;fill-opacity:1;stroke:none;stroke-width:0;stroke-linecap:round;stroke-linejoin:round;stroke-miterlimit:4;stroke-dasharray:none;stroke-dashoffset:0;stroke-opacity:1;paint-order:normal;filter:url(#filter855)" d="m 16.179688,4.5081 c -0.368059,-0.048 -0.750297,0.12 -0.951172,0.4551 l -3.097657,5.1699 c -0.367181,0.6128 0.07999,1.3724 0.804688,1.3672 h 6.113281 c 0.725164,-0.01 1.184418,-0.8161 0.826172,-1.4239 L 16.857422,4.9514 C 16.779392,4.8193 16.669291,4.7096 16.535156,4.6311 16.422853,4.5651 16.302374,4.5241 16.179688,4.5081 Z m -6.125,7.9922 c -0.1611724,0 -0.326566,0.035 -0.4785161,0.125 l -5.125,3.0156 c -0.1321,0.078 -0.2418125,0.19 -0.3203125,0.3242 -0.2641,0.4492 -0.1147688,1.0389 0.3320312,1.3067 l 5.1699219,3.0976 C 10.245613,20.7366 11.0052,20.2894 11,19.5647 v -6.1133 c -0.0075,-0.5439 -0.461797,-0.9391 -0.945312,-0.9511 z m 11.839843,0 C 21.422669,12.5003 20.9961,12.8925 21,13.4358 v 6.1133 c 0.01,0.7252 0.816028,1.1845 1.423828,0.8262 l 5.125,-3.0157 c 0.1321,-0.078 0.241813,-0.19 0.320313,-0.3242 0.2641,-0.4492 0.114768,-1.0388 -0.332032,-1.3066 l -5.169921,-3.0977 c -0.1532,-0.092 -0.315369,-0.1324 -0.472657,-0.1308 z M 16,13.5003 a 3,3 0 0 0 -3,3 3,3 0 0 0 3,3 3,3 0 0 0 3,-3 3,3 0 0 0 -3,-3 z m -3.050781,8 c -0.725164,0.01 -1.182465,0.816 -0.824219,1.4238 l 3.015625,5.125 c 0.07803,0.1321 0.190084,0.2418 0.324219,0.3203 0.449215,0.2641 1.038806,0.1148 1.30664,-0.332 l 3.097657,-5.1699 c 0.367181,-0.6128 -0.07999,-1.3724 -0.804688,-1.3672 z"/>
 <path id="circle830" style="opacity:0.75;fill:none;fill-opacity:1;stroke:#010101;stroke-width:2;stroke-linecap:round;stroke-linejoin:round;stroke-miterlimit:4;stroke-dasharray:none;stroke-dashoffset:0;stroke-opacity:1;paint-order:normal" d="M 16.179688 4.0078125 C 15.811629 3.9596391 15.429391 4.1277906 15.228516 4.4628906 L 12.130859 9.6328125 C 11.763678 10.245613 12.210852 11.0052 12.935547 11 L 19.048828 11 C 19.773992 10.99 20.233246 10.183972 19.875 9.5761719 L 16.857422 4.4511719 C 16.779392 4.3190719 16.669291 4.2093594 16.535156 4.1308594 C 16.422853 4.0648344 16.302374 4.0238703 16.179688 4.0078125 z M 10.054688 12 C 9.8935156 11.996005 9.728122 12.035425 9.5761719 12.125 L 4.4511719 15.140625 C 4.3190719 15.218625 4.2093594 15.330644 4.1308594 15.464844 C 3.8667594 15.914044 4.0160906 16.503684 4.4628906 16.771484 L 9.6328125 19.869141 C 10.245613 20.236341 11.0052 19.788853 11 19.064453 L 11 12.951172 C 10.9925 12.407272 10.538203 12.011986 10.054688 12 z M 21.894531 12 C 21.422669 12.004819 20.9961 12.392247 21 12.935547 L 21 19.048828 C 21.01 19.774028 21.816028 20.2333 22.423828 19.875 L 27.548828 16.859375 C 27.680928 16.781375 27.790641 16.669356 27.869141 16.535156 C 28.133241 16.085956 27.983909 15.496316 27.537109 15.228516 L 22.367188 12.130859 C 22.213988 12.039059 22.051819 11.998394 21.894531 12 z M 16 13 A 3 3 0 0 0 13 16 A 3 3 0 0 0 16 19 A 3 3 0 0 0 19 16 A 3 3 0 0 0 16 13 z M 12.949219 21 C 12.224055 21.01 11.766754 21.816028 12.125 22.423828 L 15.140625 27.548828 C 15.218655 27.680928 15.330709 27.790641 15.464844 27.869141 C 15.914059 28.133241 16.50365 27.983909 16.771484 27.537109 L 19.869141 22.367188 C 20.236322 21.754387 19.789148 20.9948 19.064453 21 L 12.949219 21 z"/>
 <circle id="path871" style="opacity:1;fill:#ff9800;fill-opacity:1;stroke:none;stroke-width:0;stroke-linecap:round;stroke-linejoin:round;stroke-miterlimit:4;stroke-dasharray:none;stroke-dashoffset:0;stroke-opacity:1;paint-order:normal" cx="16" cy="16" r="3"/>
 <path id="path884" style="fill:#e4e4e4;stroke-width:0.23388676" d="m 15.464844,27.8697 c 0.449215,0.2641 1.039406,0.1137 1.30724,-0.3331 l 3.096481,-5.1692 c 0.367181,-0.6128 -0.07973,-1.3722 -0.804425,-1.367 L 12.95017,21 c -0.725164,0.01 -1.184373,0.8158 -0.826127,1.4236 l 3.017464,5.1253 c 0.07803,0.1321 0.189202,0.2425 0.323337,0.321 z"/>
 <path id="path898" style="fill:#e4e4e4;stroke-width:0.23388676" d="m 27.8697,16.535 c 0.2641,-0.4492 0.1137,-1.0394 -0.3331,-1.3072 l -5.1692,-3.0965 c -0.6128,-0.3672 -1.3722,0.08 -1.367,0.8044 L 21,19.0497 c 0.01,0.7252 0.8158,1.1844 1.4236,0.8261 l 5.1253,-3.0174 c 0.1321,-0.078 0.2425,-0.1892 0.321,-0.3234 z"/>
 <path id="path8" style="fill:#e4e4e4;stroke-width:0.23388676" d="M 16.534888,4.1303 C 16.085673,3.8662 15.495482,4.0166 15.227648,4.4634 l -3.096481,5.1692 c -0.367181,0.6128 0.07973,1.3722 0.804425,1.367 l 6.11397,4e-4 c 0.725164,-0.01 1.184373,-0.8158 0.826127,-1.4236 L 16.858225,4.4511 C 16.780195,4.319 16.669023,4.2086 16.534888,4.1301 Z"/>
 <path id="path904" style="fill:#e4e4e4;stroke-width:0.23388676" d="m 4.1303087,15.465 c -0.2641,0.4492 -0.1137,1.0394 0.3331,1.3072 l 5.1692,3.0965 c 0.6128003,0.3672 1.3722003,-0.08 1.3670003,-0.8044 l 4e-4,-6.114 c -0.01,-0.7252 -0.8158,-1.1844 -1.4236003,-0.8261 l -5.1253,3.0174 c -0.1321,0.078 -0.2425,0.1892 -0.321,0.3234 z"/>
</svg>
